.local/share/icons/Gruvbox-Plus-Dark/actions/24/osd-sbs-left.svg

<svg xmlns="http://www.w3.org/2000/svg" width="24" height="24" version="1.1">
 <defs>
  <style id="current-color-scheme" type="text/css">
   .ColorScheme-Text { color:#555555; } .ColorScheme-Highlight { color:#4285f4; } .ColorScheme-NeutralText { color:#ff9800; } .ColorScheme-PositiveText { color:#4caf50; } .ColorScheme-NegativeText { color:#f44336; }
  </style>
 </defs>
 <path style="fill:currentColor" class="ColorScheme-Text" d="m 14,7 v 10 h 3.599609 C 18.375209,17 19,16.363694 19,15.572266 V 8.4277344 C 19,7.6363058 18.375209,7 17.599609,7 Z"/>
 <path style="opacity:0.35;fill:currentColor" class="ColorScheme-Text" d="M 6.4003906,7 C 5.6247906,7 5,7.6363058 5,8.4277344 V 15.572266 C 5,16.363694 5.6247906,17 6.4003906,17 H 10 V 7 Z"/>
 <path style="fill:currentColor" class="ColorScheme-Text" d="m 11,5 v 14 h 2 V 5 Z"/>
</svg>

<svg width="24" height="24" version="1.1" xmlns="http://www.w3.org/2000/svg">
  <defs>
    <style id="current-color-scheme" type="text/css">.ColorScheme-Text { color:#ebdbb2; } .ColorScheme-Highlight { color:#458588; }</style>
  </defs>
  <path class="ColorScheme-Text" d="m14 7v10h3.6c0.7756 0 1.4-0.6363 1.4-1.428v-7.145c0-0.7914-0.6248-1.428-1.4-1.428zm-3-2v14h2v-14z" fill="currentColor"/>
  <path class="ColorScheme-Text" d="m6.4 7c-0.7756 0-1.4 0.6363-1.4 1.428v7.145c0 0.7914 0.6248 1.428 1.4 1.428h3.6v-10z" fill="currentColor" opacity=".3"/>
</svg>
